X: 34112
T: Reel Des Vieux
R: reel
M: 4/4
K: Dmajor
|:A3 B AGFA|defe dBAF|A2 A2 D4|A3 B AFDF|GEED EFGB:|
A3 B AGFA|defe dBAF|A2 A2 D4|A3 B AFDF|GEED E3 A||
|:ABde fded|Bcde fe e2|ABde fded|BdAF EEFE:|
ABde fded|Bcde fefg|afge fefg|afge fedf|ecAF E3 D|EFGA||

